X: 581
T:An Sean Duine
T:Burnt Old Man (The)
M: 6/8
R:jig
L: 1/8
N:Posted to the woodenflute mailing list September 2002
Z:James T. Peeples
K: G
D|GAB dBA|G&gt;AB B2A|GAB edB|dBA A2B|\
GAB dBA|BAB g2e|fed edB|dBA A2:|*
|:B|dBB gBB|dBB d2e|dBB gfg|edB A2B|\
GAB dBA|BAB g2e|fed edB|dBA A2:|**

